cssgg/menu-motion.svg

<svg
  width="24"
  height="24"
  viewBox="0 0 24 24"
  fill="none"
  xmlns="http://www.w3.org/2000/svg"
>
  <path
    d="M12 5C11.4477 5 11 5.44772 11 6C11 6.55228 11.4477 7 12 7H20C20.5523 7 21 6.55228 21 6C21 5.44772 20.5523 5 20 5H12Z"
    fill="currentColor"
  />
  <path
    d="M7 12C7 11.4477 7.44772 11 8 11H16C16.5523 11 17 11.4477 17 12C17 12.5523 16.5523 13 16 13H8C7.44772 13 7 12.5523 7 12Z"
    fill="currentColor"
  />
  <path
    d="M3 18C3 17.4477 3.44772 17 4 17H12C12.5523 17 13 17.4477 13 18C13 18.5523 12.5523 19 12 19H4C3.44772 19 3 18.5523 3 18Z"
    fill="currentColor"
  />
</svg>

<svg viewBox="0 0 24 24" xmlns="http://www.w3.org/2000/svg"><g><path d="M12 5c-.56 0-1 .44-1 1 0 .55.44 1 1 1h8c.55 0 1-.45 1-1 0-.56-.45-1-1-1h-8Z"/><path d="M7 12c0-.56.44-1 1-1h8c.55 0 1 .44 1 1 0 .55-.45 1-1 1H8c-.56 0-1-.45-1-1Z"/><path d="M3 18c0-.56.44-1 1-1h8c.55 0 1 .44 1 1 0 .55-.45 1-1 1H4c-.56 0-1-.45-1-1Z"/></g></svg>
